src/assets/icons/home-fill.svg

<svg width="28" height="29" viewBox="0 0 28 29" fill="none" xmlns="http://www.w3.org/2000/svg">
<mask id="mask0_6_388" style="mask-type:alpha" maskUnits="userSpaceOnUse" x="0" y="0" width="28" height="29">
<rect y="0.768066" width="28" height="28" fill="#C4C4C4"/>
</mask>
<g mask="url(#mask0_6_388)">
<path d="M26.4599 9.60322L14.6707 3.24138C14.3242 3.05471 13.9077 3.05471 13.5624 3.24138L1.77907 9.60322C1.21207 9.91122 1.0009 10.6182 1.30657 11.1852C1.51657 11.576 1.91907 11.7977 2.33324 11.7977C2.5199 11.7977 2.71124 11.7534 2.8874 11.6577L3.74374 11.1957L5.59874 24.3207C5.85074 25.737 7.12707 26.7264 8.70207 26.7264H19.531C21.106 26.7264 22.3824 25.737 22.6367 24.2904L24.4894 11.1945L25.3492 11.6589C25.915 11.9657 26.6232 11.7545 26.9289 11.1875C27.2357 10.6205 27.0222 9.91237 26.4575 9.60671L26.4599 9.60322ZM14.1165 19.0357C12.0224 19.0357 10.3249 17.3382 10.3249 15.244C10.3249 13.1499 12.0224 11.4524 14.1165 11.4524C16.2107 11.4524 17.9082 13.1499 17.9082 15.244C17.9082 17.3382 16.2107 19.0357 14.1165 19.0357Z" fill="black"/>
</g>
</svg>

<svg width="28" height="29" fill="none" xmlns="http://www.w3.org/2000/svg"><mask id="a" style="mask-type:alpha" maskUnits="userSpaceOnUse" x="0" y="0" width="28" height="29"><path fill="#C4C4C4" d="M0 .768h28v28H0z"/></mask><g mask="url(#a)"><path d="M26.46 9.603 14.67 3.241a1.167 1.167 0 0 0-1.108 0L1.78 9.603a1.169 1.169 0 0 0 .554 2.195c.187 0 .378-.045.554-.14l.857-.462L5.599 24.32c.252 1.416 1.528 2.405 3.103 2.405h10.829c1.575 0 2.851-.989 3.106-2.436l1.852-13.095.86.464a1.165 1.165 0 0 0 1.58-.472 1.168 1.168 0 0 0-.471-1.58l.002-.004zm-12.344 9.433a3.792 3.792 0 1 1 0-7.583 3.792 3.792 0 0 1 0 7.583z" fill="#000"/></g></svg>
